**kern	**kern	**kern	**kern
*staff3	*staff4	*staff1	*staff2
*clefF4	*clefF4	*clefG2	*clefG2
*k[f#c#]	*k[f#c#]	*k[f#c#]	*k[f#c#]
*M2/4	*M2/4	*M2/4	*M2/4
*D:	*D:	*D:	*D:
=-	=-	=-	=-
2r	[4e [4g	[4ee [4gg	2r
.	8.eL] 8.g]	8.eeL] 8.gg]	.
.	(16d#Jk 16f#	(16dd#Jk 16ff#	.
=161	=161	=161	=161
2r	16dLL 16f	16ddLL 16ff	2r
.	16c# 16e	16cc# 16ee	.
.	16c 16e-	16cc 16ee-	.
.	16BJJ 16d	16bJJ 16dd	.
.	16A#LL 16c#	16a#LL 16cc#	.
.	16A 16c	16a 16cc	.
.	16G 16B	16g 16b	.
.	16F#JJ) 16A	16f#JJ) 16a	.
=162	=162	=162	=162
2r	8E' 8G'	8e' 8g'	2r
.	8r	8r	.
.	8GGG' 8GG'	8e' 8a' 8cc#' 8ee'	.
.	8r	8r	.
=163	=163	=163	=163
2r	8FFF#' 8FF#'	8a' 8dd' 8ff#' 8aa'	2r
.	8r	8r	.
.	4r	4r	.
=164	=164	=164	=164
2r	[4C# [4E	[4c# [4e	2r
.	16C#LL] 16E]	16c#LL] 16e]	.
.	(16D 16F	(16d 16f	.
.	16D# 16F#	16d# 16f#	.
.	16EJJ 16G	16eJJ 16g	.
=165	=165	=165	=165
2r	16E#LL 16G#	16e#LL 16g#	2r
.	16F# 16A	16f# 16a	.
.	16G 16B-	16g 16b-	.
.	16G#JJ 16B	16g#JJ 16b	.
.	16ALL 16c	16aLL 16cc	.
.	16A# 16c#	16a# 16cc#	.
.	16B 16d	16b 16dd	.
.	16cJJ) 16e-	16ccJJ) 16ee-	.
=166	=166	=166	=166
2r	8c#' 8e'	8cc#' 8ee'	2r
.	8r	8r	.
.	8AAA' 8AA'	8cc#' 8ee' 8aa' 8ccc#'	.
.	8r	8r	.
=167	=167	=167	=167
2r	8DD' 8D'	8dd' 8ff#' 8aa' 8ddd'	2r
.	8r	8r	.
.	4r	4r	.
=168:|!	=168:|!	=168:|!	=168:|!
*-	*-	*-	*-
